X:194
T:Three Jolly Sheepskins
M:4/4
L:1/8
K:G
GABc dedB | AF D2 AF D2 | GABc dedB | AF DF G4 | 
GABc dedB | AF D2 AF D2 | GABc dedB | AF DF G2 || 
dd | ef g2 ef g2 | ef g2 a2 fe | d2 de d2 BG | AGAB G2 dd | 
ef g2 ef g2 | ef g2 a2 fe | d2 de d2 BG | AGAB G4 || 

